antibot/app/images/dist/service-conv-icon.svg

<svg width="50" height="50" viewBox="0 0 50 50" fill="none" xmlns="http://www.w3.org/2000/svg">
<rect width="50" height="50" rx="8" fill="url(#paint0_linear_9705_14441)"/>
<path d="M29.375 11.25H19.375C18.5462 11.25 17.7513 11.5792 17.1653 12.1653C16.5792 12.7513 16.25 13.5462 16.25 14.375V35.625C16.25 36.4538 16.5792 37.2487 17.1653 37.8347C17.7513 38.4208 18.5462 38.75 19.375 38.75H29.375C30.2038 38.75 30.9987 38.4208 31.5847 37.8347C32.1708 37.2487 32.5 36.4538 32.5 35.625V14.375C32.5 13.5462 32.1708 12.7513 31.5847 12.1653C30.9987 11.5792 30.2038 11.25 29.375 11.25ZM24.375 37.5C23.3375 37.5 22.5 36.6625 22.5 35.625C22.5 34.5875 23.3375 33.75 24.375 33.75C25.4125 33.75 26.25 34.5875 26.25 35.625C26.25 36.6625 25.4125 37.5 24.375 37.5ZM30 32.5H18.75V15H30V32.5Z" fill="#333333"/>
<path d="M29.375 11.25H19.375C18.5462 11.25 17.7513 11.5792 17.1653 12.1653C16.5792 12.7513 16.25 13.5462 16.25 14.375V35.625C16.25 36.4538 16.5792 37.2487 17.1653 37.8347C17.7513 38.4208 18.5462 38.75 19.375 38.75H29.375C30.2038 38.75 30.9987 38.4208 31.5847 37.8347C32.1708 37.2487 32.5 36.4538 32.5 35.625V14.375C32.5 13.5462 32.1708 12.7513 31.5847 12.1653C30.9987 11.5792 30.2038 11.25 29.375 11.25ZM24.375 37.5C23.3375 37.5 22.5 36.6625 22.5 35.625C22.5 34.5875 23.3375 33.75 24.375 33.75C25.4125 33.75 26.25 34.5875 26.25 35.625C26.25 36.6625 25.4125 37.5 24.375 37.5ZM30 32.5H18.75V15H30V32.5Z" fill="white"/>
<defs>
<linearGradient id="paint0_linear_9705_14441" x1="0" y1="0" x2="50" y2="50" gradientUnits="userSpaceOnUse">
<stop stop-color="#2395FE"/>
<stop offset="1" stop-color="#123694"/>
</linearGradient>
</defs>
</svg>

<svg width="50" height="50" fill="none" xmlns="http://www.w3.org/2000/svg"><rect width="50" height="50" rx="8" fill="url(#a)"/><path d="M29.375 11.25h-10a3.125 3.125 0 0 0-3.125 3.125v21.25a3.125 3.125 0 0 0 3.125 3.125h10a3.125 3.125 0 0 0 3.125-3.125v-21.25a3.125 3.125 0 0 0-3.125-3.125Zm-5 26.25a1.872 1.872 0 0 1-1.875-1.875c0-1.038.837-1.875 1.875-1.875s1.875.837 1.875 1.875a1.872 1.872 0 0 1-1.875 1.875Zm5.625-5H18.75V15H30v17.5Z" fill="#333"/><path d="M29.375 11.25h-10a3.125 3.125 0 0 0-3.125 3.125v21.25a3.125 3.125 0 0 0 3.125 3.125h10a3.125 3.125 0 0 0 3.125-3.125v-21.25a3.125 3.125 0 0 0-3.125-3.125Zm-5 26.25a1.872 1.872 0 0 1-1.875-1.875c0-1.038.837-1.875 1.875-1.875s1.875.837 1.875 1.875a1.872 1.872 0 0 1-1.875 1.875Zm5.625-5H18.75V15H30v17.5Z" fill="#fff"/><defs><linearGradient id="a" x1="0" y1="0" x2="50" y2="50" gradientUnits="userSpaceOnUse"><stop stop-color="#2395FE"/><stop offset="1" stop-color="#123694"/></linearGradient></defs></svg>
